img/payment_4_selected.svg

<svg width="103" height="36" viewBox="0 0 103 36" fill="none" xmlns="http://www.w3.org/2000/svg">
<path d="M0 6C0 2.68629 2.68629 0 6 0H97C100.314 0 103 2.68629 103 6V30C103 33.3137 100.314 36 97 36H6C2.68629 36 0 33.3137 0 30V6Z" fill="white"/>
<path d="M32.2493 18.086V19.472H34.0413V23.602H35.6653V11.898H34.0413V14.964H32.7533C32.8233 14.376 32.8653 13.76 32.8653 13.116H28.0073V14.516H31.1573C30.9193 16.994 29.8273 18.828 27.3073 20.354L28.2873 21.572C30.6393 20.172 31.9133 18.422 32.4733 16.336H34.0413V18.086H32.2493ZM36.6173 24.176H38.2693V11.618H36.6173V24.176ZM40.0757 12.626V14.04H42.5677C42.4837 15.44 41.5457 16.77 39.6277 17.358L40.4817 18.716C41.9237 18.268 42.9317 17.358 43.4917 16.196C44.0377 17.246 45.0037 18.072 46.4037 18.478L47.2157 17.134C45.3537 16.588 44.4437 15.342 44.3597 14.04H46.8377V12.626H40.0757ZM39.5717 20.368L39.7677 21.768C41.8677 21.782 44.6817 21.782 47.2997 21.292L47.1737 20.018C46.2637 20.144 45.2977 20.228 44.3317 20.284V18.156H42.5957V20.34C41.5037 20.368 40.4677 20.368 39.5717 20.368ZM47.8457 24.176H49.5677V18.044H51.2617V16.602H49.5677V11.618H47.8457V24.176ZM60.6 11.604V24.204H62.336V11.604H60.6ZM52.312 16.966C52.312 19.724 53.712 21.46 55.602 21.46C57.492 21.46 58.892 19.724 58.892 16.966C58.892 14.222 57.492 12.5 55.602 12.5C53.712 12.5 52.312 14.222 52.312 16.966ZM53.992 16.966C53.992 15.09 54.636 14.082 55.602 14.082C56.568 14.082 57.212 15.09 57.212 16.966C57.212 18.856 56.568 19.878 55.602 19.878C54.636 19.878 53.992 18.856 53.992 16.966ZM69.2943 16.406V17.806H70.7503V23.588H72.3743V11.842H70.7503V16.406H69.2943ZM63.9743 20.494L64.9403 21.796C66.0883 21.138 66.8303 20.004 67.2643 18.66C67.6983 19.892 68.4403 20.914 69.5603 21.502L70.4983 20.214C68.7343 19.276 68.0483 17.344 68.0483 15.44V15.16H70.0363V13.746H68.0623V12.052H66.4103V13.746H64.4223V15.16H66.4103V15.44C66.4103 17.386 65.7523 19.444 63.9743 20.494ZM73.2843 24.176H74.9503V11.618H73.2843V24.176Z" fill="#E7342C"/>
<path d="M6 1H97V-1H6V1ZM102 6V30H104V6H102ZM97 35H6V37H97V35ZM1 30V6H-1V30H1ZM6 35C3.23858 35 1 32.7614 1 30H-1C-1 33.866 2.13401 37 6 37V35ZM102 30C102 32.7614 99.7614 35 97 35V37C100.866 37 104 33.866 104 30H102ZM97 1C99.7614 1 102 3.23858 102 6H104C104 2.13401 100.866 -1 97 -1V1ZM6 -1C2.13401 -1 -1 2.13401 -1 6H1C1 3.23858 3.23858 1 6 1V-1Z" fill="#E7342C"/>
</svg>

<?xml version="1.0" encoding="utf-8"?>
<!-- Generator: Adobe Illustrator 26.3.1, SVG Export Plug-In . SVG Version: 6.00 Build 0)  -->
<svg version="1.1" id="레이어_1" xmlns="http://www.w3.org/2000/svg" xmlns:xlink="http://www.w3.org/1999/xlink" x="0px"
	 y="0px" viewBox="0 0 103 36" style="enable-background:new 0 0 103 36;" xml:space="preserve">
<style type="text/css">
	.st0{fill:#E7342C;}
</style>
<path class="st0" d="M32.25,18.09v1.39h1.79v4.13h1.62V11.9h-1.62v3.07h-1.29c0.07-0.59,0.11-1.2,0.11-1.85h-4.86v1.4h3.15
	c-0.24,2.48-1.33,4.31-3.85,5.84l0.98,1.22c2.35-1.4,3.63-3.15,4.19-5.24h1.57v1.75H32.25z M36.62,24.18h1.65V11.62h-1.65V24.18z
	 M40.08,12.63v1.41h2.49c-0.08,1.4-1.02,2.73-2.94,3.32l0.85,1.36c1.44-0.45,2.45-1.36,3.01-2.52c0.55,1.05,1.51,1.88,2.91,2.28
	l0.81-1.34c-1.86-0.55-2.77-1.79-2.86-3.09h2.48v-1.41H40.08z M39.57,20.37l0.2,1.4c2.1,0.01,4.91,0.01,7.53-0.48l-0.13-1.27
	c-0.91,0.13-1.88,0.21-2.84,0.27v-2.13H42.6v2.18C41.5,20.37,40.47,20.37,39.57,20.37z M47.85,24.18h1.72v-6.13h1.69V16.6h-1.69
	v-4.98h-1.72V24.18z M60.6,11.6v12.6h1.74V11.6H60.6z M52.31,16.97c0,2.76,1.4,4.49,3.29,4.49s3.29-1.74,3.29-4.49
	c0-2.74-1.4-4.47-3.29-4.47S52.31,14.22,52.31,16.97z M53.99,16.97c0-1.88,0.64-2.88,1.61-2.88s1.61,1.01,1.61,2.88
	c0,1.89-0.64,2.91-1.61,2.91S53.99,18.86,53.99,16.97z M69.29,16.41v1.4h1.46v5.78h1.62V11.84h-1.62v4.56H69.29z M63.97,20.49
	l0.97,1.3c1.15-0.66,1.89-1.79,2.32-3.14c0.43,1.23,1.18,2.25,2.3,2.84l0.94-1.29c-1.76-0.94-2.45-2.87-2.45-4.77v-0.28h1.99v-1.41
	h-1.97v-1.69h-1.65v1.69h-1.99v1.41h1.99v0.28C66.41,17.39,65.75,19.44,63.97,20.49z M73.28,24.18h1.67V11.62h-1.67V24.18z"/>
</svg>
